X:1
T:Title
%%score { 1 | 2 }
L:1/8
M:4/4
K:Bb
V:1 treble nm="Grand Piano"
V:2 bass 
V:1
 z4 z2[Q:1/4=100] [B,D][CE] | [DF]2 [DB]2 [Fc]2 [FB]2 | A2 G4 AG | F2 G2 F2 [A,E]2 | %4
[M:3/4] [B,D]6 |[M:1/4] [B,D][CE] |[M:4/4] [DF]2 [Fd]2 [Fc]2 [FB]2 | A2 G4 AG | F2 G2 [EA]2 [Ec]2 | %9
[M:3/4] [DB]6 |[M:1/4] AB |[M:4/4] c2 =B2 d2 c2 | [DFB]2 [DF]4 [DB][FA] | G2 ^F2 G2 d2 | %14
[M:3/4] c6 |[M:1/4] [DF][DB] |[M:4/4] [Fd]2 [Fd]2 [Ge]2 [Fd]2 | [Gc]2 G4 AG | F2 G2 [EA]2 [Ec]2 | %19
[M:3/4] [DB]6 |[M:1/4] [DF]>[_D=E] |[M:4/4] [_DG]2 [=DF]4 [DB]>[DF] | [FA]2 G4 A>G | %23
 F>F A>G F>E [A,C]>[A,_D] |[M:3/4] [B,D]6 |[M:1/4] [DF]>[_D=E] |[M:4/4] [_DG]2 [=DF]4 [DB]>[DF] | %27
 A2 G4 A>G | F>F F>F G>G [CEA]>[CEA] | [B,DB]6 z2 |] %30
V:2
 z4 z2 [B,,F,][B,,F,] | [B,,B,]2 [B,,B,]2 [C,A,]2 [D,B,]2 | [E,B,E]2 [E,B,E]4 [E,B,E][E,B,E] | %3
 [F,B,D]2 [F,B,D]2 [F,A,C]2 [F,,F,]2 |[M:3/4] [B,,F,]6 |[M:1/4] [B,,F,][B,,F,] | %6
[M:4/4] [B,,B,]2 [B,,B,]2 [C,A,]2 [D,B,]2 | [E,B,E]2 [E,B,E]4 [E,B,E][E,B,E] | %8
 [F,B,D]2 [F,A,E]2 [F,,F,]2 [F,,F,]2 |[M:3/4] [B,,F,]6 |[M:1/4] [F,CE][F,DF] | %11
[M:4/4] [F,EF]2 [F,DF]2 [F,EF]2 [F,EF]2 | B,,2 [B,,B,]4 [B,,B,][D,B,] | %13
 [E,B,E]2 [E,A,E]2 [E,B,E]2 [E,G,E]2 |[M:3/4] [F,A,E]6 |[M:1/4] [B,,B,][B,,B,] | %16
[M:4/4] [B,,B,]2 [B,,B,]2 [B,,B,]2 [D,B,]2 | [E,B,]2 [E,B,E]4 [E,B,E][E,B,E] | %18
 [F,B,D]2 [F,A,E]2 [F,,F,]2 [F,,F,]2 |[M:3/4] [B,,F,]6 |[M:1/4] [B,,B,]>[B,,B,] | %21
[M:4/4] [B,,B,]2 [B,,B,]4 [B,,B,]>[B,,B,] | [E,B,]2 [E,B,E]4 [E,B,E]>[E,B,E] | %23
 [F,A,E]>[F,A,E] [F,CE]>[F,B,E] [F,A,C]>[F,A,] [F,,F,]>[F,,F,] |[M:3/4] [B,,F,]6 | %25
[M:1/4] [B,,B,]>[B,,B,] |[M:4/4] [B,,B,]2 [B,,B,]4 [B,,B,]>[B,,B,] | %27
 [E,B,E]2 [E,B,E]4 [E,B,E]>[E,B,E] | [F,A,E]>[F,A,E] [F,A,E]>[F,A,E] [F,A,E]>[F,A,E] F,,>F,, | %29
 B,,6 z2 |] %30

